src/gui/emoticons/mouse.svg

<svg xmlns="http://www.w3.org/2000/svg" xmlns:xlink="http://www.w3.org/1999/xlink" width="16pt" height="16pt" version="1.1" viewBox="0 0 16 16"><defs><linearGradient id="linear0" x1="27.926" x2="27.926" y1="11.279" y2="59.394" gradientTransform="matrix(0.125,0,0,0.125,0,0)" gradientUnits="userSpaceOnUse"><stop offset=".511" style="stop-color:#f2f2f2;stop-opacity:1"/><stop offset=".608" style="stop-color:#e7e7e7;stop-opacity:1"/><stop offset=".777" style="stop-color:#cacaca;stop-opacity:1"/><stop offset=".89" style="stop-color:#b3b3b3;stop-opacity:1"/></linearGradient><linearGradient id="linear1" x1="100.07" x2="100.07" y1="11.279" y2="59.394" gradientTransform="matrix(0.125,0,0,0.125,0,0)" gradientUnits="userSpaceOnUse"><stop offset=".511" style="stop-color:#f2f2f2;stop-opacity:1"/><stop offset=".608" style="stop-color:#e7e7e7;stop-opacity:1"/><stop offset=".777" style="stop-color:#cacaca;stop-opacity:1"/><stop offset=".89" style="stop-color:#b3b3b3;stop-opacity:1"/></linearGradient><linearGradient id="linear2" x1="64.002" x2="64.002" y1="118.46" y2="27.454" gradientTransform="matrix(0.125,0,0,0.125,0,0)" gradientUnits="userSpaceOnUse"><stop offset=".11" style="stop-color:#b3b3b3;stop-opacity:1"/><stop offset=".223" style="stop-color:#cacaca;stop-opacity:1"/><stop offset=".392" style="stop-color:#e7e7e7;stop-opacity:1"/><stop offset=".489" style="stop-color:#f2f2f2;stop-opacity:1"/></linearGradient><linearGradient id="linear3" x1="64.002" x2="64.002" y1="73.646" y2="87.648" gradientTransform="matrix(0.125,0,0,0.125,0,0)" gradientUnits="userSpaceOnUse"><stop offset=".163" style="stop-color:#575757;stop-opacity:1"/><stop offset=".645" style="stop-color:#262626;stop-opacity:1"/><stop offset="1" style="stop-color:#000;stop-opacity:1"/></linearGradient></defs><g id="surface1"><path style="stroke:none;fill-rule:nonzero;fill:url(#linear0)" d="M 3.492188 6.796875 C 1.945312 6.796875 0.6875 5.542969 0.6875 3.996094 C 0.6875 2.449219 1.945312 1.191406 3.492188 1.191406 C 5.039062 1.191406 6.292969 2.449219 6.292969 3.996094 C 6.292969 5.539062 5.035156 6.796875 3.492188 6.796875 Z M 3.492188 6.796875"/><path style="stroke:none;fill-rule:nonzero;fill:#a3a3a3;fill-opacity:1" d="M 3.492188 1.378906 C 4.933594 1.378906 6.109375 2.554688 6.109375 3.996094 C 6.109375 5.4375 4.933594 6.613281 3.492188 6.613281 C 2.046875 6.613281 0.875 5.4375 0.875 3.996094 C 0.875 2.550781 2.046875 1.378906 3.492188 1.378906 M 3.492188 1.003906 C 1.839844 1.003906 0.5 2.34375 0.5 3.996094 C 0.5 5.644531 1.839844 6.984375 3.492188 6.984375 C 5.144531 6.984375 6.484375 5.648438 6.484375 3.996094 C 6.484375 2.34375 5.140625 1.003906 3.492188 1.003906 Z M 3.492188 1.003906"/><path style="stroke:none;fill-rule:nonzero;fill:#ffbdbd;fill-opacity:1" d="M 5.21875 3.996094 C 5.21875 4.949219 4.445312 5.722656 3.492188 5.722656 C 2.539062 5.722656 1.765625 4.949219 1.765625 3.996094 C 1.765625 3.039062 2.539062 2.265625 3.492188 2.265625 C 4.445312 2.265625 5.21875 3.039062 5.21875 3.996094 Z M 5.21875 3.996094"/><path style="stroke:none;fill-rule:nonzero;fill:url(#linear1)" d="M 12.507812 6.796875 C 10.960938 6.796875 9.703125 5.542969 9.703125 3.996094 C 9.703125 2.449219 10.964844 1.191406 12.507812 1.191406 C 14.054688 1.191406 15.3125 2.449219 15.3125 3.996094 C 15.3125 5.542969 14.054688 6.796875 12.507812 6.796875 Z M 12.507812 6.796875"/><path style="stroke:none;fill-rule:nonzero;fill:#a3a3a3;fill-opacity:1" d="M 12.507812 1.378906 C 13.953125 1.378906 15.125 2.554688 15.125 3.996094 C 15.125 5.4375 13.953125 6.613281 12.507812 6.613281 C 11.066406 6.613281 9.894531 5.4375 9.894531 3.996094 C 9.894531 2.550781 11.066406 1.378906 12.507812 1.378906 M 12.507812 1.003906 C 10.859375 1.003906 9.515625 2.34375 9.515625 3.996094 C 9.515625 5.648438 10.855469 6.988281 12.507812 6.988281 C 14.160156 6.988281 15.5 5.648438 15.5 3.996094 C 15.5 2.34375 14.160156 1.003906 12.507812 1.003906 Z M 12.507812 1.003906"/><path style="stroke:none;fill-rule:nonzero;fill:#ffbdbd;fill-opacity:1" d="M 14.234375 3.996094 C 14.234375 4.949219 13.460938 5.722656 12.507812 5.722656 C 11.554688 5.722656 10.78125 4.949219 10.78125 3.996094 C 10.78125 3.039062 11.554688 2.265625 12.507812 2.265625 C 13.460938 2.265625 14.234375 3.039062 14.234375 3.996094 Z M 14.234375 3.996094"/><path style="stroke:none;fill-rule:nonzero;fill:url(#linear2)" d="M 8 14.808594 C 7.0625 14.808594 5.496094 14.394531 4.117188 13.476562 C 3.253906 12.898438 1.808594 11.660156 1.808594 9.820312 C 1.808594 6.746094 4.175781 3.429688 8 3.429688 C 11.824219 3.429688 14.191406 6.746094 14.191406 9.820312 C 14.191406 11.660156 12.746094 12.898438 11.882812 13.476562 C 10.503906 14.394531 8.9375 14.808594 8 14.808594 Z M 8 14.808594"/><path style="stroke:none;fill-rule:nonzero;fill:#a3a3a3;fill-opacity:1" d="M 8 3.617188 C 9.695312 3.617188 11.246094 4.308594 12.367188 5.558594 C 13.40625 6.714844 14.003906 8.269531 14.003906 9.820312 C 14.003906 10.507812 13.792969 11.171875 13.371094 11.796875 C 12.992188 12.355469 12.457031 12.867188 11.78125 13.320312 C 10.433594 14.21875 8.910156 14.621094 8 14.621094 C 7.089844 14.621094 5.570312 14.21875 4.222656 13.320312 C 3.542969 12.867188 3.007812 12.355469 2.628906 11.796875 C 2.210938 11.171875 1.996094 10.507812 1.996094 9.820312 C 1.996094 8.269531 2.59375 6.714844 3.636719 5.558594 C 4.753906 4.308594 6.304688 3.617188 8 3.617188 M 8 3.242188 C 4.113281 3.242188 1.621094 6.554688 1.621094 9.820312 C 1.621094 13.082031 5.871094 14.996094 8 14.996094 C 10.128906 14.996094 14.378906 13.082031 14.378906 9.820312 C 14.378906 6.554688 11.886719 3.242188 8 3.242188 Z M 8 3.242188"/><path style="stroke:none;fill-rule:nonzero;fill:#fff;fill-opacity:1" d="M 8.703125 11.789062 L 8.117188 11.246094 C 8.03125 11.167969 7.90625 11.167969 7.820312 11.246094 L 7.210938 11.789062 C 7.164062 11.832031 7.125 11.894531 7.125 11.957031 L 7.125 11.949219 C 7.125 12.390625 7.515625 12.75 7.953125 12.75 L 8.003906 12.75 C 8.445312 12.75 8.75 12.390625 8.75 11.949219 L 8.75 11.953125 C 8.75 11.890625 8.75 11.832031 8.703125 11.789062 Z M 8.703125 11.789062"/><path style="fill:none;stroke-width:3;stroke-linecap:round;stroke-linejoin:round;stroke:gray;stroke-opacity:1;stroke-miterlimit:10" d="M 63.375 85.96875 C 63.375 90.21875 59.90625 93.65625 55.65625 93.65625 C 51.40625 93.65625 47.96875 90.21875 47.96875 85.96875" transform="matrix(0.125,0,0,0.125,0,0)"/><path style="fill:none;stroke-width:3;stroke-linecap:round;stroke-linejoin:round;stroke:gray;stroke-opacity:1;stroke-miterlimit:10" d="M 79.25 85.96875 C 79.25 90.21875 75.8125 93.65625 71.5625 93.65625 C 67.3125 93.65625 63.875 90.21875 63.875 85.96875" transform="matrix(0.125,0,0,0.125,0,0)"/><path style="stroke:none;fill-rule:nonzero;fill:url(#linear3)" d="M 9.328125 10.027344 C 9.328125 9.570312 8.734375 9.199219 8 9.199219 C 7.265625 9.199219 6.671875 9.570312 6.671875 10.027344 C 6.671875 10.484375 7.265625 10.855469 8 10.855469 C 8.734375 10.855469 9.328125 10.484375 9.328125 10.027344 Z M 9.328125 10.027344"/><path style="fill:none;stroke-width:3;stroke-linecap:round;stroke-linejoin:round;stroke:#404040;stroke-opacity:1;stroke-miterlimit:10" d="M 20.15625 107.3125 L 33.34375 95.125" transform="matrix(0.125,0,0,0.125,0,0)"/><path style="fill:none;stroke-width:3;stroke-linecap:round;stroke-linejoin:round;stroke:#404040;stroke-opacity:1;stroke-miterlimit:10" d="M 31.75 89.71875 L 15.40625 96.21875" transform="matrix(0.125,0,0,0.125,0,0)"/><path style="fill:none;stroke-width:3;stroke-linecap:round;stroke-linejoin:round;stroke:#404040;stroke-opacity:1;stroke-miterlimit:10" d="M 13 84.5 L 31 84.5" transform="matrix(0.125,0,0,0.125,0,0)"/><path style="fill:none;stroke-width:3;stroke-linecap:round;stroke-linejoin:round;stroke:#404040;stroke-opacity:1;stroke-miterlimit:10" d="M 108 107.3125 L 94.84375 95.125" transform="matrix(0.125,0,0,0.125,0,0)"/><path style="fill:none;stroke-width:3;stroke-linecap:round;stroke-linejoin:round;stroke:#404040;stroke-opacity:1;stroke-miterlimit:10" d="M 96.4375 89.71875 L 112.75 96.21875" transform="matrix(0.125,0,0,0.125,0,0)"/><path style="fill:none;stroke-width:3;stroke-linecap:round;stroke-linejoin:round;stroke:#404040;stroke-opacity:1;stroke-miterlimit:10" d="M 115 84.5 L 98 84.5" transform="matrix(0.125,0,0,0.125,0,0)"/><path style="stroke:none;fill-rule:nonzero;fill:#404040;fill-opacity:1" d="M 11.480469 8.199219 L 10.515625 7.976562 L 11.503906 7.511719 C 11.515625 7.503906 11.527344 7.496094 11.539062 7.488281 C 11.742188 7.347656 11.777344 7.046875 11.589844 6.859375 C 11.449219 6.714844 11.214844 6.710938 11.046875 6.828125 C 10.65625 7.105469 9.734375 7.75 9.371094 8.003906 C 9.308594 8.046875 9.320312 8.144531 9.390625 8.175781 L 11.207031 8.972656 C 11.21875 8.976562 11.230469 8.984375 11.246094 8.988281 C 11.484375 9.066406 11.746094 8.910156 11.78125 8.648438 C 11.808594 8.449219 11.671875 8.261719 11.480469 8.199219 Z M 11.480469 8.199219"/><path style="stroke:none;fill-rule:nonzero;fill:#404040;fill-opacity:1" d="M 4.519531 8.199219 L 5.484375 7.976562 L 4.496094 7.511719 C 4.484375 7.503906 4.472656 7.496094 4.460938 7.488281 C 4.257812 7.347656 4.222656 7.046875 4.410156 6.859375 C 4.550781 6.714844 4.785156 6.710938 4.953125 6.828125 C 5.34375 7.105469 6.265625 7.75 6.628906 8.003906 C 6.691406 8.046875 6.679688 8.144531 6.609375 8.175781 L 4.792969 8.972656 C 4.78125 8.976562 4.769531 8.984375 4.753906 8.988281 C 4.515625 9.066406 4.253906 8.910156 4.21875 8.648438 C 4.191406 8.449219 4.328125 8.261719 4.519531 8.199219 Z M 4.519531 8.199219"/></g></svg>

<svg xmlns="http://www.w3.org/2000/svg" width="16pt" height="16pt" viewBox="0 0 16 16"><defs><linearGradient id="a" x1="27.926" x2="27.926" y1="11.279" y2="59.394" gradientTransform="scale(.125)" gradientUnits="userSpaceOnUse"><stop offset=".511" style="stop-color:#f2f2f2;stop-opacity:1"/><stop offset=".608" style="stop-color:#e7e7e7;stop-opacity:1"/><stop offset=".777" style="stop-color:#cacaca;stop-opacity:1"/><stop offset=".89" style="stop-color:#b3b3b3;stop-opacity:1"/></linearGradient><linearGradient id="b" x1="100.07" x2="100.07" y1="11.279" y2="59.394" gradientTransform="scale(.125)" gradientUnits="userSpaceOnUse"><stop offset=".511" style="stop-color:#f2f2f2;stop-opacity:1"/><stop offset=".608" style="stop-color:#e7e7e7;stop-opacity:1"/><stop offset=".777" style="stop-color:#cacaca;stop-opacity:1"/><stop offset=".89" style="stop-color:#b3b3b3;stop-opacity:1"/></linearGradient><linearGradient id="c" x1="64.002" x2="64.002" y1="118.46" y2="27.454" gradientTransform="scale(.125)" gradientUnits="userSpaceOnUse"><stop offset=".11" style="stop-color:#b3b3b3;stop-opacity:1"/><stop offset=".223" style="stop-color:#cacaca;stop-opacity:1"/><stop offset=".392" style="stop-color:#e7e7e7;stop-opacity:1"/><stop offset=".489" style="stop-color:#f2f2f2;stop-opacity:1"/></linearGradient><linearGradient id="d" x1="64.002" x2="64.002" y1="73.646" y2="87.648" gradientTransform="scale(.125)" gradientUnits="userSpaceOnUse"><stop offset=".163" style="stop-color:#575757;stop-opacity:1"/><stop offset=".645" style="stop-color:#262626;stop-opacity:1"/><stop offset="1" style="stop-color:#000;stop-opacity:1"/></linearGradient></defs><path d="M3.492 6.797a2.804 2.804 0 0 1-2.804-2.8A2.807 2.807 0 0 1 3.492 1.19c1.547 0 2.801 1.258 2.801 2.805 0 1.543-1.258 2.8-2.8 2.8m0 0" style="stroke:none;fill-rule:nonzero;fill:url(#a)"/><path d="M3.492 1.379A2.62 2.62 0 0 1 6.11 3.996a2.62 2.62 0 0 1-2.617 2.617 2.617 2.617 0 0 1 0-5.234m0-.375A2.99 2.99 0 0 0 .5 3.996a2.99 2.99 0 0 0 2.992 2.988 2.99 2.99 0 1 0 0-5.98m0 0" style="stroke:none;fill-rule:nonzero;fill:#a3a3a3;fill-opacity:1"/><path d="M5.219 3.996a1.727 1.727 0 0 1-3.453 0c0-.957.773-1.73 1.726-1.73s1.727.773 1.727 1.73m0 0" style="stroke:none;fill-rule:nonzero;fill:#ffbdbd;fill-opacity:1"/><path d="M12.508 6.797a2.804 2.804 0 0 1-2.805-2.8 2.81 2.81 0 0 1 2.805-2.806 2.807 2.807 0 0 1 2.805 2.805c0 1.547-1.258 2.8-2.805 2.8m0 0" style="stroke:none;fill-rule:nonzero;fill:url(#b)"/><path d="M12.508 1.379a2.62 2.62 0 0 1 2.617 2.617 2.62 2.62 0 0 1-2.617 2.617 2.617 2.617 0 0 1 0-5.234m0-.375a2.992 2.992 0 1 0 0 5.984 2.992 2.992 0 0 0 0-5.984m0 0" style="stroke:none;fill-rule:nonzero;fill:#a3a3a3;fill-opacity:1"/><path d="M14.234 3.996a1.727 1.727 0 0 1-3.453 0 1.728 1.728 0 1 1 3.453 0m0 0" style="stroke:none;fill-rule:nonzero;fill:#ffbdbd;fill-opacity:1"/><path d="M8 14.809c-.937 0-2.504-.414-3.883-1.332-.863-.579-2.308-1.817-2.308-3.657 0-3.074 2.367-6.39 6.191-6.39s6.191 3.316 6.191 6.39c0 1.84-1.445 3.078-2.308 3.657-1.38.918-2.945 1.332-3.883 1.332m0 0" style="stroke:none;fill-rule:nonzero;fill:url(#c)"/><path d="M8 3.617c1.695 0 3.246.692 4.367 1.942a6.46 6.46 0 0 1 1.637 4.261c0 .688-.211 1.352-.633 1.977-.379.558-.914 1.07-1.59 1.523-1.347.899-2.87 1.301-3.781 1.301-.91 0-2.43-.402-3.777-1.3-.68-.454-1.215-.966-1.594-1.524-.418-.625-.633-1.29-.633-1.977 0-1.55.598-3.105 1.64-4.261A5.78 5.78 0 0 1 8 3.617m0-.375c-3.887 0-6.379 3.313-6.379 6.578 0 3.262 4.25 5.176 6.379 5.176s6.379-1.914 6.379-5.176c0-3.265-2.492-6.578-6.379-6.578m0 0" style="stroke:none;fill-rule:nonzero;fill:#a3a3a3;fill-opacity:1"/><path d="m8.703 11.79-.586-.544a.217.217 0 0 0-.297 0l-.61.543c-.046.043-.085.106-.085.168v-.008c0 .442.39.801.828.801h.05c.442 0 .747-.36.747-.8v.003c0-.062 0-.121-.047-.164m0 0" style="stroke:none;fill-rule:nonzero;fill:#fff;fill-opacity:1"/><path d="M63.375 85.969c0 4.25-3.469 7.687-7.719 7.687a7.68 7.68 0 0 1-7.687-7.687M79.25 85.969a7.68 7.68 0 0 1-7.687 7.687 7.68 7.68 0 0 1-7.688-7.687" style="fill:none;stroke-width:3;stroke-linecap:round;stroke-linejoin:round;stroke:gray;stroke-opacity:1;stroke-miterlimit:10" transform="scale(.125)"/><path d="M9.328 10.027C9.328 9.57 8.734 9.2 8 9.2s-1.328.371-1.328.828.594.828 1.328.828 1.328-.37 1.328-.828m0 0" style="stroke:none;fill-rule:nonzero;fill:url(#d)"/><path d="m20.156 107.313 13.188-12.188M31.75 89.719l-16.344 6.5M13 84.5h18M108 107.313 94.844 95.125M96.438 89.719l16.312 6.5M115 84.5H98" style="fill:none;stroke-width:3;stroke-linecap:round;stroke-linejoin:round;stroke:#404040;stroke-opacity:1;stroke-miterlimit:10" transform="scale(.125)"/><path d="m11.48 8.2-.964-.223.988-.465.035-.024a.41.41 0 0 0 .05-.629c-.14-.144-.374-.148-.542-.03-.39.276-1.313.921-1.676 1.175-.062.043-.05.14.02.172l1.816.797q.016.008.04.015c.237.078.5-.078.534-.34.028-.199-.11-.386-.3-.449M4.52 8.2l.964-.223-.988-.465-.035-.024a.41.41 0 0 1-.05-.629c.14-.144.374-.148.542-.03.39.276 1.313.921 1.676 1.175.062.043.05.14-.02.172l-1.816.797q-.016.008-.04.015a.413.413 0 0 1-.534-.34c-.028-.199.11-.386.3-.449m0 0" style="stroke:none;fill-rule:nonzero;fill:#404040;fill-opacity:1"/></svg>
